src/topics/icons/tapcart.svg

<svg height="256" preserveAspectRatio="xMidYMid" viewBox="0 0 256 256" width="256" xmlns="http://www.w3.org/2000/svg" xmlns:xlink="http://www.w3.org/1999/xlink"><linearGradient id="a" x1="73.727006%" x2="33.337416%" y1="82.979863%" y2="10.98075%"><stop offset="0" stop-color="#9154ff"/><stop offset=".1989" stop-color="#6974ff"/><stop offset=".4539" stop-color="#3c99ff"/><stop offset=".6817" stop-color="#1bb3ff"/><stop offset=".8715" stop-color="#07c3ff"/><stop offset="1" stop-color="#00c9ff"/></linearGradient><path d="m116.083836 139.91476c-3.663919-3.663919-9.658808-3.663919-13.315983-.008992l-47.8647106 47.869206c-3.6594228 3.659423-3.6594228 9.652065.0067434 13.318231 3.6639184 3.670662 9.6565603 3.670662 13.3159831.011239l47.8692061-47.869206c3.684148-3.688644 3.654927-9.654312-.011239-13.320478m56.912116-56.9121165c-27.218643-27.2163948-71.471134-27.191669-98.6695467.011239l-54.5721534 54.5699055c-3.6661662 3.670662-3.6661662 9.663304-.0067434 13.320479 3.6639184 3.666166 9.6610559 3.666166 13.3249743 0l54.5721534-54.5699058c19.8683278-19.8705757 52.1670048-19.8750713 72.0308368-.0067434 19.868328 19.8660802 19.859337 52.1625092-.006743 72.0308372l-54.572154 54.574401c-3.663918 3.663918-3.663918 9.658808 0 13.324974 3.657175 3.657175 9.652065 3.657175 13.318231-.006743l54.572154-54.572154c27.20066-27.202908 27.227633-71.455399.008991-98.6762895m46.554241-46.5519935c-48.613229-48.6154763-127.6572097-48.5862549-176.2434646 0l-40.56384718 40.566095c-3.65717496 3.6571749-3.65717496 9.6520647 0 13.3114875 3.66391837 3.6639183 9.66105588 3.6639183 13.31823088.0022478l40.5660949-40.5638472c41.260666-41.26066596 108.373311-41.23369233 149.604755 0 41.260666 41.260666 41.233692 108.3688149 0 149.6047549l-40.566095 40.566095c-3.659423 3.657175-3.659423 9.654313.008991 13.320479 3.654928 3.654927 9.652065 3.654927 13.30924 0l40.566095-40.568343c48.586255-48.581759 48.613229-127.6234926 0-176.238969" fill="url(#a)"/></svg>

<?xml version="1.0" encoding="UTF-8"?>
<svg width="256px" height="256px" viewBox="0 0 256 256" version="1.1" xmlns="http://www.w3.org/2000/svg" xmlns:xlink="http://www.w3.org/1999/xlink" preserveAspectRatio="xMidYMid">
    <defs>
        <linearGradient x1="73.7270059%" y1="82.9798631%" x2="33.3374162%" y2="10.9807501%" id="linearGradient-1">
            <stop stop-color="#9154FF" offset="0%"></stop>
            <stop stop-color="#6974FF" offset="19.89%"></stop>
            <stop stop-color="#3C99FF" offset="45.39%"></stop>
            <stop stop-color="#1BB3FF" offset="68.17%"></stop>
            <stop stop-color="#07C3FF" offset="87.15%"></stop>
            <stop stop-color="#00C9FF" offset="100%"></stop>
        </linearGradient>
    </defs>
    <g>
        <path d="M116.083836,139.91476 C112.419917,136.250841 106.425028,136.250841 102.767853,139.905768 L54.9031424,187.774974 C51.2437196,191.434397 51.2437196,197.427039 54.9098858,201.093205 C58.5738042,204.763867 64.5664461,204.763867 68.2258689,201.104444 L116.095075,153.235238 C119.779223,149.546594 119.750002,143.580926 116.083836,139.91476 M172.995952,83.0026435 C145.777309,55.7862487 101.524818,55.8109745 74.3264053,83.0138825 L19.7542519,137.583788 C16.0880857,141.25445 16.0880857,147.247092 19.7475085,150.904267 C23.4114269,154.570433 29.4085644,154.570433 33.0724828,150.904267 L87.6446362,96.3343612 C107.512964,76.4637855 139.811641,76.4592899 159.675473,96.3276178 C179.543801,116.193698 179.53481,148.490127 159.66873,168.358455 L105.096576,222.932856 C101.432658,226.596774 101.432658,232.591664 105.096576,236.25783 C108.753751,239.915005 114.748641,239.915005 118.414807,236.251087 L172.986961,181.678933 C200.187621,154.476025 200.214594,110.223534 172.995952,83.0026435 M219.550193,36.45065 C170.936964,-12.1648263 91.8929833,-12.1356049 43.3067284,36.45065 L2.74288122,77.016745 C-0.91429374,80.6739199 -0.91429374,86.6688097 2.74288122,90.3282325 C6.40679959,93.9921508 12.4039371,93.9921508 16.0611121,90.3304803 L56.627207,49.7666331 C97.887873,8.50596714 165.000518,8.53294077 206.231962,49.7666331 C247.492628,91.0272991 247.465654,158.135448 206.231962,199.371388 L165.665867,239.937483 C162.006444,243.594658 162.006444,249.591796 165.674858,253.257962 C169.329786,256.912889 175.326923,256.912889 178.984098,253.257962 L219.550193,212.689619 C268.136448,164.10786 268.163422,85.0661264 219.550193,36.45065" fill="url(#linearGradient-1)" fill-rule="nonzero"></path>
    </g>
</svg>
